X:8
T:Belfast chicken
R:Reel
O:Ireland
S:Kerr's Fourth
B:Kerr's Fourth
Z:Transcription, chords:Mike Long
M:C|
L:1/8
K:D
"D"d2 "A"e2 "D"dcAc|"C"=cBcG EFGE|"D"Dddc dcAd|"D"dB"A"AG "D"(FD) D2:|\
"C"efge e=cgc|e=cgc dccg|
"D"fgaf "G"gddg|"D"fd"A"ag "D"fddg|\
"C"efge e=cgc|e=cgc dccg|"D"abaf "G"gedB|"A"ABAG "D"(FD) D2|]
